X: 4803
T: Miss MacKenzie's Strathspey
C: Robert Mackintosh
R: strathspey
B: RSCDS 48-3
Z: 2015 by John Chambers <jc:trillian.mit.edu> (based on a transcription by Terry Traub)
N: Tune for the dance The Golden Years
M: 4/4
L: 1/16
K: D
d2 |\
"D"AF3 E3F "F#/D"D3F EA,3 | "Em"B,E3 EE3 "A7"E3F GB3 |\
"D"AF3 "C#/A"E3F "Bm"D3F "F#/D"DA,3 | "G"B,B3 "A"A3F "D"DDD2 D2 :|
f2 |\
"D"a3f agfe "F#/D"fd3 dA3 | "Em"Be3 ee3 "A7"e3f gb3 |\
"D"a3f agfe "F#/D"fd3 d3A | "G"Bd3 "A/D"A3F "D"DDD2 D3 ||
f |\
"D"a3f agfe "F#/D"fd3 dA3 | "Em"Be3 ee3 "A7"e3f gb3 |\
"D"agf2 "C#/A"gfe2 "Bm"fed2 "F#/D"edc2 | "G"d3B "A/D"A3F "D"DDD2 D2 |]
%%center Book48/4803-Miss_Mackenzies_Strathspey-D-16-3.abc

%%sep 1 1 500
%%sep 1 1 500

